X:53237
T:Trees, The
C:Mrs Marina Russell, Upwey coll. HED Hammond
S:England
A:Dorset
N:Transcribed from HAM-02-239.gif
F:HAM-05-32-37.abc
C:Transcibed to abc by PJHeadford
M:C
L:1/8
Q:1/4=90
K:C
"^V 1/"D D|D> G G> A B2A> A|A> D D< DD2zF|F> F F> F F> F F> F|E> C C> CC2c c| \
M:6/8
Q:1/4=120
c3 B2G|\
M:9/8
A2B c3 d>c B|\
M:C
Q:1/4=90
c> c B> A D>C D> E|F> F ((3(FE) D) C2 "_*"B,> C|D HG3 z2||
"^Another verse"\
D D|D>G G> AB2A2|A> D D< DD2F> F|F2 F> F F> F F> F|E> C C> CC2c c|

